packages/icons/web/v2/elo_32.svg

<svg width="32" height="24" viewBox="0 0 32 24" fill="none" xmlns="http://www.w3.org/2000/svg">
    <g>
        <path fill="#003933"
            d="M10.5627 10.1189C10.867 10.425 11.0775 10.8513 11.1584 11.3169H6.53204C6.65186 10.8252 6.89142 10.425 7.1828 10.1321C7.60687 9.70557 8.1767 9.46484 8.87921 9.46484C9.58173 9.46484 10.1645 9.71851 10.5627 10.1189Z" />
        <path fill="#003933"
            d="M25.4809 12.0623C25.4809 13.4619 24.4481 14.5261 23.056 14.5261C21.6898 14.5261 20.6312 13.4194 20.6312 12.0491C20.6312 10.6365 21.6898 9.57227 23.056 9.57227C24.4222 9.57227 25.4809 10.6626 25.4809 12.0623Z" />
        <path fill="#003933" fill-rule="evenodd" clip-rule="evenodd"
            d="M4 0C1.79083 0 0 1.79077 0 4V20C0 22.2092 1.79083 24 4 24H28C30.2092 24 32 22.2092 32 20V4C32 1.79077 30.2092 0 28 0H4ZM4.9198 11.3169H3V12.8044H4.9198C5.263 14.6433 7.38354 16.0952 8.87921 16.0952C10.3749 16.0952 11.5016 15.4961 12.2559 14.6304L11.1163 13.5791C10.5465 14.23 9.99292 14.6042 8.87921 14.6042C7.76556 14.6042 6.8396 13.9404 6.54828 12.8076H12.748C12.7739 12.6189 12.7998 12.5244 12.7998 12.1404C12.7998 9.65039 10.9059 8 8.87921 8C6.8526 8 5.263 9.47778 4.9198 11.3169ZM15.6229 14.448V8.05542H13.9523V14.3406C13.9523 15.4473 14.548 16.0464 15.6487 16.0464H18.6434V14.448H15.6229ZM23.0528 8C20.7218 8 18.9606 9.87817 18.9606 12.0491C18.9606 14.2332 20.7089 16.0984 23.0528 16.0984C25.1053 16.0984 26.7241 14.6467 27.0802 12.8076H29V11.3169H27.0802C26.7338 9.46484 25.3838 8 23.0528 8Z" />
    </g>
</svg>

<svg xmlns="http://www.w3.org/2000/svg" width="32" height="24" fill="none" viewBox="0 0 32 24">
    <g clip-path="url(#elo_32_svg__a)">
        <path fill="#003933" d="M10.563 10.119c.304.306.515.732.595 1.198H6.532c.12-.492.36-.892.65-1.185.425-.426.995-.667 1.697-.667s1.286.254 1.684.654M25.48 12.062c0 1.4-1.032 2.464-2.424 2.464-1.366 0-2.425-1.107-2.425-2.477 0-1.412 1.059-2.477 2.425-2.477s2.425 1.09 2.425 2.49"/>
        <path fill="#003933" fill-rule="evenodd" d="M4 0a4 4 0 0 0-4 4v16a4 4 0 0 0 4 4h24a4 4 0 0 0 4-4V4a4 4 0 0 0-4-4zm.92 11.317H3v1.487h1.92c.343 1.84 2.464 3.291 3.96 3.291s2.622-.599 3.376-1.465l-1.14-1.05c-.57.65-1.123 1.024-2.237 1.024-1.113 0-2.04-.664-2.33-1.796h6.199c.026-.19.052-.284.052-.668C12.8 9.65 10.906 8 8.88 8c-2.027 0-3.617 1.478-3.96 3.317m10.703 3.131V8.055h-1.67v6.286c0 1.106.595 1.705 1.696 1.705h2.994v-1.598zM23.053 8a4.067 4.067 0 0 0-4.092 4.05 4.05 4.05 0 0 0 4.092 4.048 4.08 4.08 0 0 0 4.027-3.29H29v-1.491h-1.92C26.734 9.465 25.384 8 23.053 8" clip-rule="evenodd"/>
        <rect width="31" height="23" x=".5" y=".5" stroke="#ccc" rx="3.5"/>
    </g>
    <defs>
        <clipPath id="elo_32_svg__a">
            <rect width="32" height="24" fill="#fff" rx="4"/>
        </clipPath>
    </defs>
</svg>
